X:142
T:Turnpike Gate. JC.142
R:Jig
S:John Clare,Poet,Helpstone (1793-1864)
N:MR. Bars 8,9,13 last notes crots in MS, given here
N:as dotted crots. Bar 16 left as in MS.
O:England
A:Northamptonshire
Z:vmp.P. Headford
M:6/8
L:1/8
Q:3/8=120
K:D
ded e2d|\
g2e a2f|ded efg|Bed cBA|!
ded f2d|g2e a2f|ded efg|ABc d3||!
a2f a3|gfg efg|fef def|efd cBA|!
a2fa3|gfg efg|faf d2f|a3″ D.C.”A|]

